X: 19156
T: Iron Bridge, The
R: reel
M: 4/4
K: Eminor
Be~e2 BeGe|Ae~e2 AeGA|Be~e2 d2BG|AdFA B2GA|
Be~e2 BeGe|dBGA B2AF|EGeg fgeB|1 AFDF E2GA:|2 AFDF E4||
|:egfg eBGB|AdFd DFAF|EFGA BEGB|ef (3gfe f4|
g2fg efdf|eBGB AFDF|E2GB efge|1 fedf e4:|2 fedf e2GA||

